docs/img/all-services/1.svg

<svg width="80" height="80" viewBox="0 0 80 80" fill="none" xmlns="http://www.w3.org/2000/svg">
<path d="M32.3478 17.4561C30.6862 13.477 30.6862 9.00713 32.3478 5.02866C43.0122 5.02866 50.1888 5.02866 60.8532 5.02866C60.8532 9.17094 60.8532 13.3132 60.8532 17.4561C50.1888 17.4561 43.0128 17.4561 32.3478 17.4561Z" stroke="#0098D0" stroke-width="2" stroke-miterlimit="10" stroke-linecap="round"/>
<path d="M22.2405 11.2418H10.4297" stroke="#0098D0" stroke-width="2" stroke-miterlimit="10" stroke-linecap="round"/>
<path d="M65.0284 18.9842C65.0284 20.1278 64.0935 21.055 62.9403 21.055C61.7865 21.055 60.8516 20.1278 60.8516 18.9842V3.49939C60.8516 2.35579 61.7865 1.42856 62.9403 1.42856C64.0935 1.42856 65.0284 2.35579 65.0284 3.49939" stroke="#0098D0" stroke-width="2" stroke-miterlimit="10" stroke-linecap="round"/>
<path d="M74.3945 14.8467V7.63735C74.3945 6.49374 75.3295 5.56711 76.4827 5.56711H76.4833C77.6371 5.56711 78.5714 6.49434 78.5714 7.63794V14.8467C78.5714 15.991 77.6365 16.9182 76.4827 16.9182C75.3295 16.9176 74.3945 15.9904 74.3945 14.8467Z" stroke="#0098D0" stroke-width="2" stroke-miterlimit="10" stroke-linecap="round"/>
<path d="M60.8516 14.3345H74.3943V8.14957H60.8516" stroke="#0098D0" stroke-width="2" stroke-miterlimit="10" stroke-linecap="round"/>
<path d="M22.3693 12.7344C22.5536 13.7735 23.4528 14.5394 24.5166 14.5394H25.2667C26.4415 14.5394 27.6168 14.5394 28.7915 14.5394C29.676 14.5394 30.5598 14.5394 31.4442 14.5394C30.9888 12.3646 30.9888 10.1202 31.4442 7.94547C30.5598 7.94547 29.676 7.94547 28.7915 7.94547C27.6162 7.94547 26.4415 7.94547 25.2667 7.94547H24.5166C23.4528 7.94547 22.5536 8.71133 22.3693 9.75042C22.1949 10.7369 22.1943 11.7473 22.3693 12.7344Z" stroke="#0098D0" stroke-width="2" stroke-miterlimit="10" stroke-linecap="round"/>
<path d="M3.57422 31.724H8.55297" stroke="#0098D0" stroke-width="2" stroke-miterlimit="10" stroke-linecap="round"/>
<path d="M1.42969 28.4288V29.6684C1.42969 30.8053 2.35912 31.727 3.5055 31.727V71.7043C3.5055 75.4969 6.60566 78.5714 10.43 78.5714C14.2544 78.5714 17.3545 75.4969 17.3545 71.7043V31.727C18.5009 31.727 19.4303 30.8053 19.4303 29.6684V28.4288C19.4303 27.292 18.5009 26.3702 17.3545 26.3702H3.5055C2.35973 26.3702 1.42969 27.292 1.42969 28.4288Z" stroke="#0098D0" stroke-width="2" stroke-miterlimit="10" stroke-linecap="round"/>
<path d="M8.49748 53.0632C10.1361 53.0631 11.6806 52.664 13.0396 51.9606V71.7037C13.0396 73.1171 11.8768 74.2818 10.4316 74.2818C8.98663 74.2818 7.82422 73.1174 7.82422 71.7037V53.0398C8.04592 53.0553 8.27037 53.0634 8.49748 53.0632ZM8.49748 53.0632C8.49766 53.0632 8.49784 53.0632 8.49802 53.0632L8.49695 52.0632V53.0632C8.49713 53.0632 8.4973 53.0632 8.49748 53.0632ZM14.0396 50.1256C13.7233 50.3778 13.3893 50.609 13.0396 50.8171L14.0396 50.1256Z" stroke="#0098D0" stroke-width="2"/>
<path d="M26.832 44.9778H31.8108" stroke="#0098D0" stroke-width="2" stroke-miterlimit="10" stroke-linecap="round"/>
<path d="M24.6875 41.682V42.9216C24.6875 44.0585 25.6169 44.9802 26.7633 44.9802V71.7036C26.7633 75.4963 29.8635 78.5708 33.6878 78.5708C37.5122 78.5708 40.6123 75.4963 40.6123 71.7036V44.9802C41.7587 44.9802 42.6882 44.0585 42.6882 42.9216V41.682C42.6882 40.5451 41.7587 39.6234 40.6123 39.6234H26.7633C25.6169 39.624 24.6875 40.5457 24.6875 41.682Z" stroke="#0098D0" stroke-width="2" stroke-miterlimit="10" stroke-linecap="round"/>
<path d="M31.082 71.7044V66.2938C31.3036 66.3094 31.5279 66.3176 31.7548 66.3176C33.3937 66.3176 34.9384 65.9182 36.2975 65.2148V71.7044C36.2975 73.1178 35.1346 74.2825 33.6894 74.2825C32.2444 74.2825 31.082 73.118 31.082 71.7044Z" stroke="#0098D0" stroke-width="2"/>
<path d="M50.0859 44.9778H55.0647" stroke="#0098D0" stroke-width="2" stroke-miterlimit="10" stroke-linecap="round"/>
<path d="M47.9414 41.682V42.9216C47.9414 44.0585 48.8708 44.9802 50.0172 44.9802V71.7036C50.0172 75.4963 53.1174 78.5708 56.9417 78.5708C60.7661 78.5708 63.8663 75.4963 63.8663 71.7036V44.9802C65.0126 44.9802 65.9421 44.0585 65.9421 42.9216V41.682C65.9421 40.5451 65.0126 39.6234 63.8663 39.6234H50.0172C48.8708 39.624 47.9414 40.5457 47.9414 41.682Z" stroke="#0098D0" stroke-width="2" stroke-miterlimit="10" stroke-linecap="round"/>
<path d="M54.3359 71.7044V66.2938C54.5577 66.3094 54.7822 66.3176 55.0093 66.3176C56.6483 66.3176 58.1929 65.9182 59.552 65.2148V71.7044C59.552 73.1178 58.3892 74.2825 56.944 74.2825C55.4987 74.2825 54.3359 73.1178 54.3359 71.7044Z" stroke="#0098D0" stroke-width="2"/>
<path d="M12.6931 19.711C12.6931 18.4714 10.4305 15.4019 10.4305 15.4019C10.4305 15.4019 8.16797 18.4714 8.16797 19.711C8.16797 20.9499 9.18122 21.9548 10.4305 21.9548C11.6798 21.9554 12.6931 20.9499 12.6931 19.711Z" fill="#0098D0"/>
</svg>

<svg width="80" height="80" fill="none" xmlns="http://www.w3.org/2000/svg"><path d="M32.348 17.456a16.114 16.114 0 010-12.427h28.505v12.427H32.348zM22.24 11.242H10.43" stroke="#0098D0" stroke-width="2" stroke-miterlimit="10" stroke-linecap="round"/><path d="M65.028 18.984a2.08 2.08 0 01-2.088 2.071 2.08 2.08 0 01-2.088-2.07V3.498a2.08 2.08 0 012.088-2.07 2.08 2.08 0 012.088 2.07m9.366 11.349v-7.21a2.08 2.08 0 012.089-2.07h0a2.08 2.08 0 012.088 2.07v7.21a2.08 2.08 0 01-2.088 2.071 2.08 2.08 0 01-2.089-2.071z" stroke="#0098D0" stroke-width="2" stroke-miterlimit="10" stroke-linecap="round"/><path d="M60.852 14.335h13.542V8.15H60.852M22.37 12.734a2.182 2.182 0 002.147 1.805h6.927a16.083 16.083 0 010-6.594h-6.927a2.182 2.182 0 00-2.148 1.805 8.56 8.56 0 000 2.984zM3.574 31.724h4.979M1.43 28.429v1.24c0 1.136.93 2.058 2.075 2.058v39.977c0 3.793 3.1 6.867 6.925 6.867 3.824 0 6.925-3.074 6.925-6.867V31.727a2.067 2.067 0 002.075-2.059v-1.24c0-1.136-.93-2.058-2.075-2.058H3.505a2.068 2.068 0 00-2.075 2.06z" stroke="#0098D0" stroke-width="2" stroke-miterlimit="10" stroke-linecap="round"/><path d="M8.497 53.063c1.64 0 3.184-.399 4.543-1.102v19.743c0 1.413-1.163 2.578-2.608 2.578s-2.608-1.165-2.608-2.578V53.04c.222.015.446.023.673.023zm0 0h.001l-.001-1v1s0 0 0 0zm5.543-2.937c-.317.252-.65.483-1 .691l1-.691z" stroke="#0098D0" stroke-width="2"/><path d="M26.832 44.978h4.979m-7.123-3.296v1.24c0 1.137.929 2.058 2.075 2.058v26.724c0 3.792 3.1 6.867 6.925 6.867 3.824 0 6.924-3.075 6.924-6.867V44.98a2.067 2.067 0 002.076-2.058v-1.24c0-1.137-.93-2.059-2.076-2.059H26.763a2.068 2.068 0 00-2.076 2.059z" stroke="#0098D0" stroke-width="2" stroke-miterlimit="10" stroke-linecap="round"/><path d="M31.082 71.704v-5.41a9.856 9.856 0 005.215-1.079v6.49c0 1.413-1.162 2.578-2.608 2.578-1.445 0-2.607-1.165-2.607-2.579z" stroke="#0098D0" stroke-width="2"/><path d="M50.086 44.978h4.979m-7.124-3.296v1.24c0 1.137.93 2.058 2.076 2.058v26.724c0 3.792 3.1 6.867 6.925 6.867 3.824 0 6.924-3.075 6.924-6.867V44.98a2.067 2.067 0 002.076-2.058v-1.24c0-1.137-.93-2.059-2.076-2.059H50.017a2.068 2.068 0 00-2.076 2.059z" stroke="#0098D0" stroke-width="2" stroke-miterlimit="10" stroke-linecap="round"/><path d="M54.336 71.704v-5.41a9.855 9.855 0 005.216-1.079v6.49c0 1.413-1.163 2.578-2.608 2.578s-2.608-1.165-2.608-2.579z" stroke="#0098D0" stroke-width="2"/><path d="M12.693 19.711c0-1.24-2.262-4.31-2.262-4.31s-2.263 3.07-2.263 4.31a2.254 2.254 0 002.263 2.244 2.253 2.253 0 002.262-2.244z" fill="#0098D0"/></svg>
